sources/design/Outline/ട.svg

<svg:svg xmlns:cc="http://creativecommons.org/ns#" xmlns:dc="http://purl.org/dc/elements/1.1/" xmlns:inkscape="http://www.inkscape.org/namespaces/inkscape" xmlns:rdf="http://www.w3.org/1999/02/22-rdf-syntax-ns#" xmlns:sodipodi="http://sodipodi.sourceforge.net/DTD/sodipodi-0.dtd" xmlns:svg="http://www.w3.org/2000/svg" xml:space="preserve" width="1000" height="1000" version="1.1" style="clip-rule:evenodd;fill-rule:evenodd;image-rendering:optimizeQuality;shape-rendering:geometricPrecision;text-rendering:geometricPrecision" viewBox="0 0 1000 1000" id="svg10" sodipodi:docname="ട.svg" inkscape:version="1.1.1 (3bf5ae0d25, 2021-09-20)"><svg:text text-anchor="middle" x="397.05951" y="781.8186" id="bottom" inkscape:label="bottom" style="clip-rule:evenodd;fill-rule:evenodd;image-rendering:optimizeQuality;shape-rendering:geometricPrecision;text-rendering:geometricPrecision">✛</svg:text><svg:metadata id="metadata14"><rdf:RDF><cc:Work rdf:about=""><dc:format>image/svg+xml</dc:format><dc:type rdf:resource="http://purl.org/dc/dcmitype/StillImage" /></cc:Work></rdf:RDF></svg:metadata><sodipodi:namedview pagecolor="#ffffff" bordercolor="#666666" borderopacity="1" objecttolerance="10" gridtolerance="10" guidetolerance="10" inkscape:pageopacity="0" inkscape:pageshadow="2" inkscape:window-width="1920" inkscape:window-height="1009" id="namedview12" showgrid="false" inkscape:zoom="1.9176736" inkscape:cx="393.44547" inkscape:cy="738.91615" inkscape:window-x="0" inkscape:window-y="0" inkscape:window-maximized="1" inkscape:current-layer="svg10" showguides="true" inkscape:guide-bbox="true" inkscape:document-rotation="0" inkscape:snap-to-guides="true" inkscape:pagecheckerboard="0"><sodipodi:guide position="0,1000" orientation="0,1" id="guide16" inkscape:label="" inkscape:locked="true" inkscape:color="rgb(0,0,255)" /><sodipodi:guide position="1763.3122,2036.1693" orientation="1000,0" id="guide18" /><sodipodi:guide position="0,200" orientation="0,1" id="guide20" inkscape:label="base" inkscape:locked="true" inkscape:color="rgb(0,0,255)" /><inkscape:grid type="xygrid" id="grid24" originx="-473.37552" originy="-489.69235" /><sodipodi:guide position="0,0" orientation="0,1" id="guide34" inkscape:label="bottom" inkscape:locked="true" inkscape:color="rgb(0,0,255)" /><sodipodi:guide position="225.05109,1693.3186" orientation="0,1" id="guide44" inkscape:label="" inkscape:locked="false" inkscape:color="rgb(0,0,255)" /><sodipodi:guide position="0,900" orientation="0,1" id="guide46" inkscape:label="" inkscape:locked="true" inkscape:color="rgb(0,0,255)" /><sodipodi:guide position="533.36805,613.13415" orientation="-1,0" id="guide841" inkscape:label="width" inkscape:locked="false" inkscape:color="rgb(0,0,255)" /><sodipodi:guide position="0,1000" orientation="0,1000" id="guide860" /><sodipodi:guide position="1000,1000" orientation="1000,0" id="guide862" /><sodipodi:guide position="1000,0" orientation="0,-1000" id="guide864" /><sodipodi:guide position="0,0" orientation="-1000,0" id="guide866" /></sodipodi:namedview>
 <svg:defs id="defs4"><inkscape:path-effect effect="fillet_chamfer" id="path-effect860" is_visible="true" lpeversion="1" satellites_param="F,0,0,1,0,0,0,1 @ F,0,0,1,0,0,0,1 @ F,0,0,1,0,0,0,1 @ F,0,0,1,0,0,0,1 @ F,0,0,1,0,0,0,1 @ F,0,0,1,0,0,0,1 @ F,0,0,1,0,0,0,1 @ F,0,0,1,0,0,0,1 @ F,0,0,1,0,32.502295,0,1 @ F,0,0,1,0,35.66476,0,1 @ F,0,0,1,0,0,0,1 @ F,0,0,1,0,0,0,1 @ F,0,0,1,0,0,0,1 @ F,0,1,1,0,0,0,1 @ F,0,0,1,0,0,0,1 @ F,0,0,1,0,0,0,1 @ F,0,0,1,0,0,0,1 @ F,0,0,1,0,0,0,1 @ F,0,0,1,0,0,0,1 @ F,0,0,1,0,0,0,1 @ F,0,0,1,0,29.59451,0,1 @ F,0,0,1,0,16.487021,0,1 @ F,0,0,1,0,0,0,1 @ F,0,0,1,0,17.736974,0,1 @ F,0,0,1,0,20.294797,0,1" unit="px" method="auto" mode="F" radius="0" chamfer_steps="1" flexible="false" use_knot_distance="true" apply_no_radius="true" apply_with_radius="true" only_selected="true" hide_knots="false" /><inkscape:path-effect effect="spiro" id="path-effect875" is_visible="true" lpeversion="1" /><inkscape:path-effect effect="spiro" id="path-effect873" is_visible="true" lpeversion="1" /><inkscape:path-effect effect="spiro" id="path-effect859" is_visible="true" lpeversion="1" /><inkscape:path-effect effect="spiro" id="path-effect862" is_visible="true" lpeversion="1" /><inkscape:path-effect effect="spiro" id="path-effect1521" is_visible="true" lpeversion="1" /><inkscape:path-effect effect="spiro" id="path-effect858" is_visible="true" lpeversion="1" /><inkscape:path-effect effect="spiro" id="path-effect854" is_visible="true" lpeversion="1" />
  <svg:style type="text/css" id="style2">
   
    .fil0 {fill:#EF7F1A;fill-rule:nonzero}
   
  </svg:style>
 <inkscape:path-effect effect="spiro" id="path-effect1214" is_visible="true" lpeversion="1" /><inkscape:path-effect effect="spiro" id="path-effect1195" is_visible="true" lpeversion="1" /><inkscape:path-effect effect="spiro" id="path-effect992" is_visible="true" lpeversion="1" /><inkscape:path-effect effect="spiro" id="path-effect287" is_visible="true" lpeversion="1" /><inkscape:path-effect effect="spiro" id="path-effect1032" is_visible="true" lpeversion="1" /><inkscape:path-effect effect="spiro" id="path-effect1218" is_visible="true" lpeversion="1" /><inkscape:path-effect effect="spiro" id="path-effect309" is_visible="true" lpeversion="1" /><inkscape:path-effect effect="spiro" id="path-effect1176" is_visible="true" lpeversion="1" /><inkscape:path-effect effect="spiro" id="path-effect1026" is_visible="true" lpeversion="1" /><inkscape:path-effect effect="spiro" id="path-effect1030" is_visible="true" lpeversion="1" /></svg:defs>
 
<svg:g id="path1087-1-75"><svg:path style="color:#000000;fill:#1a5fb4;stroke-linecap:round;stroke-linejoin:round;-inkscape-stroke:none;paint-order:fill stroke markers;fill-rule:nonzero" d="M 386.82812,68.542969 C 311.50893,67.886051 236.19093,85.387773 168.98047,119.79883 C 100.55181,154.83359 41.275044,206.86614 -2.4609375,270.01953 C -15.785979,289.26048 -17.520756,306.80643 -10.738281,327.94140999999996 L 24.974609,439.22851999999995 C 33.35295,465.33638999999994 60.46034,479.70276999999993 86.4375,473.4121099999999 C 111.60119,467.31843999999995 137.21353,463.05051999999995 162.99023,460.6601599999999 C 234.18496,454.0580099999999 307.15403000000003,463.3102699999999 364.01758,498.5742199999999 C 388.17718,513.5568099999999 408.58271,533.0905599999999 420.16797,555.6581999999999 C 425.94604000000004,566.9136799999999 429.59134,579.0170099999998 430.58203000000003,590.8456999999999 C 431.56786000000005,602.6163199999999 429.89418,614.4878599999998 425.72656,624.7089799999999 C 418.56686,642.2682399999999 402.33642000000003,657.8463099999999 383.02344,666.4921899999999 C 363.3612,675.29441 339.71839,678.0120599999999 315.99414,675.5937499999999 C 264.27644000000004,670.3219599999999 214.32968,641.4470299999999 176.76367000000002,601.3964799999999 C 155.08154000000002,578.2803399999999 137.09586000000002,551.5677099999999 123.74805000000002,522.7695299999999 C 117.41253000000002,509.1005199999999 105.31623000000002,494.6291399999999 85.79882800000001,492.2617199999999 C 66.28142400000002,489.89429999999993 50.00355000000001,502.15352999999993 41.177734000000015,514.88281 L -6.5058594,583.65625 C -26.684948,612.76011 -24.99514,651.04189 0.62695312,677.20703 C 19.201855,696.17562 38.89527,714.0481 59.578125,730.69922 C 93.525718,758.02936 130.87081,782.64788 172.30469,800.4921899999999 C 213.80819,818.3664799999999 259.34668999999997,829.2579199999999 306.03319999999997,828.35547 C 366.83151,827.1802299999999 427.22787999999997,805.47296 473.60352,764.77148 C 520.05951,723.99948 549.96862,665.98625 555.66602,604.26758 C 561.90229,536.7113099999999 539.00141,469.73528999999996 498.32812,417.47265999999996 C 457.83803,365.44539999999995 401.32651,328.78202 340.60156,307.80078 C 297.51393,292.91346 251.97929,285.74841 206.51758,286.37109 C 222.63554000000002,274.72099 240.77959,265.92253 259.81445,261.32811999999996 C 300.05339000000004,251.61572999999996 345.51751,258.39408 389.51758,272.79491999999993 C 405.27887,277.9534499999999 420.77139,283.9461999999999 435.90430000000003,290.7382799999999 C 449.15427000000005,296.6852399999999 467.7273,299.3458099999999 483.38867000000005,288.1406199999999 C 499.05005000000006,276.9354399999999 502.5621100000001,257.5732199999999 500.5878900000001,242.9374999999999 L 483.50977,116.32813 C 480.21989,91.938871 464.18079,74.990987 438.87305,71.914062 C 421.59096,69.8129 404.20948,68.694565 386.82812,68.542969 M 386.32422,128.56055 C 399.22548,128.66477 412.10393000000005,129.45178 424.91797,130.78906 L 437.83398,226.54883 C 428.0485,222.68865 418.17895,219.04416 408.17969,215.77148 C 358.09882,199.38045 301.72574,189.4879 245.73632999999998,203.00195 C 186.63422999999997,217.26730999999998 135.50126,257.03827 107.12695,310.81055 A 30.003,30.003 0.0 0,0 140.13867,354.10352 C 199.72177,340.92335 263.33007,344.58333 321.00780999999995,364.51172 C 372.12817999999993,382.17446 418.79173999999995,412.96622 450.97851999999995,454.32422 C 482.98209999999995,495.44683000000003 500.56100999999995,548.47803 495.91991999999993,598.75391 C 491.6955699999999,644.51544 468.69386999999995,689.2490700000001 434.0253899999999,719.67578 C 399.2681799999999,750.18038 352.0029199999999,767.45421 304.8730499999999,768.36523 C 268.3348199999999,769.07152 230.9872499999999,760.43784 196.03905999999992,745.38672 C 161.02125,730.30561 128.09464,708.83269 97.203125,683.96289 C 78.364627,668.79661 60.419755,652.51086 43.496094,635.22852 C 41.55944,633.25082 40.533566,621.1137 42.800781,617.84375 L 78.525391,566.32227 C 93.278836,593.90753 111.56213,619.58764 133.0,642.44336 C 178.74381,691.21257 240.47733,728.2078 309.90819999999997,735.28516 C 341.95856,738.55217 376.03119,735.3610600000001 407.53905999999995,721.25586 C 439.39618999999993,706.99432 467.27718999999996,681.71799 481.28515999999996,647.36328 C 489.36337,627.55136 492.09221999999994,606.3878100000001 490.37109,585.83789 C 488.65483,565.34606 482.57912999999996,545.8561100000001 473.54492,528.2578100000001 C 455.50561,493.1179000000001 426.60632,466.7885800000001 395.63867,447.58398000000005 C 323.53125,402.86654000000004 237.36428999999998,393.50520000000006 157.44922,400.91602000000006 C 131.29026,403.3418300000001 105.32052999999999,407.59072000000003 79.714844,413.44727000000006 L 46.392578,309.60742 C 47.188541,312.08772999999997 49.036794,301.04402 46.865234,304.17969 C 84.915918,249.23568999999998 136.86762,203.64819 196.32422000000003,173.20703 C 254.64967000000001,143.34501 320.65877,128.03008 386.32422,128.56055" id="path28322" /></svg:g></svg:svg>

<svg:svg xmlns:cc="http://creativecommons.org/ns#" xmlns:dc="http://purl.org/dc/elements/1.1/" xmlns:inkscape="http://www.inkscape.org/namespaces/inkscape" xmlns:rdf="http://www.w3.org/1999/02/22-rdf-syntax-ns#" xmlns:sodipodi="http://sodipodi.sourceforge.net/DTD/sodipodi-0.dtd" xmlns:svg="http://www.w3.org/2000/svg" xml:space="preserve" width="1000" height="1000" version="1.1" style="clip-rule:evenodd;fill-rule:evenodd;image-rendering:optimizeQuality;shape-rendering:geometricPrecision;text-rendering:geometricPrecision" viewBox="0 0 1000 1000" id="svg10" sodipodi:docname="ട.svg" inkscape:version="1.1.1 (3bf5ae0d25, 2021-09-20)"><svg:text text-anchor="middle" x="397.05951" y="781.8186" id="bottom" inkscape:label="bottom" style="clip-rule:evenodd;fill-rule:evenodd;image-rendering:optimizeQuality;shape-rendering:geometricPrecision;text-rendering:geometricPrecision">✛</svg:text><svg:metadata id="metadata14"><rdf:RDF><cc:Work rdf:about=""><dc:format>image/svg+xml</dc:format><dc:type rdf:resource="http://purl.org/dc/dcmitype/StillImage" /></cc:Work></rdf:RDF></svg:metadata><sodipodi:namedview pagecolor="#ffffff" bordercolor="#666666" borderopacity="1" objecttolerance="10" gridtolerance="10" guidetolerance="10" inkscape:pageopacity="0" inkscape:pageshadow="2" inkscape:window-width="1920" inkscape:window-height="1009" id="namedview12" showgrid="false" inkscape:zoom="1.9176736" inkscape:cx="393.44547" inkscape:cy="738.91615" inkscape:window-x="0" inkscape:window-y="0" inkscape:window-maximized="1" inkscape:current-layer="svg10" showguides="true" inkscape:guide-bbox="true" inkscape:document-rotation="0" inkscape:snap-to-guides="true" inkscape:pagecheckerboard="0"><sodipodi:guide position="0,1000" orientation="0,1" id="guide16" inkscape:label="" inkscape:locked="true" inkscape:color="rgb(0,0,255)" /><sodipodi:guide position="1763.3122,2036.1693" orientation="1000,0" id="guide18" /><sodipodi:guide position="0,200" orientation="0,1" id="guide20" inkscape:label="base" inkscape:locked="true" inkscape:color="rgb(0,0,255)" /><inkscape:grid type="xygrid" id="grid24" originx="-473.37552" originy="-489.69235" /><sodipodi:guide position="0,0" orientation="0,1" id="guide34" inkscape:label="bottom" inkscape:locked="true" inkscape:color="rgb(0,0,255)" /><sodipodi:guide position="225.05109,1693.3186" orientation="0,1" id="guide44" inkscape:label="" inkscape:locked="false" inkscape:color="rgb(0,0,255)" /><sodipodi:guide position="0,900" orientation="0,1" id="guide46" inkscape:label="" inkscape:locked="true" inkscape:color="rgb(0,0,255)" /><sodipodi:guide position="533.36805,613.13415" orientation="-1,0" id="guide841" inkscape:label="width" inkscape:locked="false" inkscape:color="rgb(0,0,255)" /><sodipodi:guide position="0,1000" orientation="0,1000" id="guide860" /><sodipodi:guide position="1000,1000" orientation="1000,0" id="guide862" /><sodipodi:guide position="1000,0" orientation="0,-1000" id="guide864" /><sodipodi:guide position="0,0" orientation="-1000,0" id="guide866" /></sodipodi:namedview>
 <svg:defs id="defs4"><inkscape:path-effect effect="fillet_chamfer" id="path-effect860" is_visible="true" lpeversion="1" satellites_param="F,0,0,1,0,0,0,1 @ F,0,0,1,0,0,0,1 @ F,0,0,1,0,0,0,1 @ F,0,0,1,0,0,0,1 @ F,0,0,1,0,0,0,1 @ F,0,0,1,0,0,0,1 @ F,0,0,1,0,0,0,1 @ F,0,0,1,0,0,0,1 @ F,0,0,1,0,32.502295,0,1 @ F,0,0,1,0,35.66476,0,1 @ F,0,0,1,0,0,0,1 @ F,0,0,1,0,0,0,1 @ F,0,0,1,0,0,0,1 @ F,0,1,1,0,0,0,1 @ F,0,0,1,0,0,0,1 @ F,0,0,1,0,0,0,1 @ F,0,0,1,0,0,0,1 @ F,0,0,1,0,0,0,1 @ F,0,0,1,0,0,0,1 @ F,0,0,1,0,0,0,1 @ F,0,0,1,0,29.59451,0,1 @ F,0,0,1,0,16.487021,0,1 @ F,0,0,1,0,0,0,1 @ F,0,0,1,0,17.736974,0,1 @ F,0,0,1,0,20.294797,0,1" unit="px" method="auto" mode="F" radius="0" chamfer_steps="1" flexible="false" use_knot_distance="true" apply_no_radius="true" apply_with_radius="true" only_selected="true" hide_knots="false" /><inkscape:path-effect effect="spiro" id="path-effect875" is_visible="true" lpeversion="1" /><inkscape:path-effect effect="spiro" id="path-effect873" is_visible="true" lpeversion="1" /><inkscape:path-effect effect="spiro" id="path-effect859" is_visible="true" lpeversion="1" /><inkscape:path-effect effect="spiro" id="path-effect862" is_visible="true" lpeversion="1" /><inkscape:path-effect effect="spiro" id="path-effect1521" is_visible="true" lpeversion="1" /><inkscape:path-effect effect="spiro" id="path-effect858" is_visible="true" lpeversion="1" /><inkscape:path-effect effect="spiro" id="path-effect854" is_visible="true" lpeversion="1" />
  <svg:style type="text/css" id="style2">
   
    .fil0 {fill:#EF7F1A;fill-rule:nonzero}
   
  </svg:style>
 <inkscape:path-effect effect="spiro" id="path-effect1214" is_visible="true" lpeversion="1" /><inkscape:path-effect effect="spiro" id="path-effect1195" is_visible="true" lpeversion="1" /><inkscape:path-effect effect="spiro" id="path-effect992" is_visible="true" lpeversion="1" /><inkscape:path-effect effect="spiro" id="path-effect287" is_visible="true" lpeversion="1" /><inkscape:path-effect effect="spiro" id="path-effect1032" is_visible="true" lpeversion="1" /><inkscape:path-effect effect="spiro" id="path-effect1218" is_visible="true" lpeversion="1" /><inkscape:path-effect effect="spiro" id="path-effect309" is_visible="true" lpeversion="1" /><inkscape:path-effect effect="spiro" id="path-effect1176" is_visible="true" lpeversion="1" /><inkscape:path-effect effect="spiro" id="path-effect1026" is_visible="true" lpeversion="1" /><inkscape:path-effect effect="spiro" id="path-effect1030" is_visible="true" lpeversion="1" /></svg:defs>
 
<svg:g id="path1087-1-75"><svg:path style="color:#000000;fill:#1a5fb4;stroke-linecap:round;stroke-linejoin:round;-inkscape-stroke:none;fill-rule:nonzero" d="M 386.82812,68.542969 C 311.50893,67.886051 236.19093,85.387773 168.98047,119.79883 100.55181,154.83359 41.275044,206.86614 -2.4609375,270.01953 c -13.3250415,19.24095 -15.0598185,36.7869 -8.2773435,57.92188 l 35.71289,111.28711 c 8.378341,26.10787 35.485731,40.47425 61.462891,34.18359 25.16369,-6.09367 50.77603,-10.36159 76.55273,-12.75195 71.19473,-6.60215 144.1638,2.65011 201.02735,37.91406 24.1596,14.98259 44.56513,34.51634 56.15039,57.08398 5.77807,11.25548 9.42337,23.35881 10.41406,35.1875 0.98583,11.77062 -0.68785,23.64216 -4.85547,33.86328 -7.1597,17.55926 -23.39014,33.13733 -42.70312,41.78321 -19.66224,8.80222 -43.30505,11.51987 -67.0293,9.10156 -51.7177,-5.27179 -101.66446,-34.14672 -139.23047,-74.19727 -21.68213,-23.11614 -39.66781,-49.82877 -53.01562,-78.62695 -6.33552,-13.66901 -18.43182,-28.14039 -37.949222,-30.50781 -19.517404,-2.36742 -35.795278,9.89181 -44.621094,22.62109 L -6.5058594,583.65625 C -26.684948,612.76011 -24.99514,651.04189 0.62695312,677.20703 19.201855,696.17562 38.89527,714.0481 59.578125,730.69922 c 33.947593,27.33014 71.292685,51.94866 112.726565,69.79297 41.5035,17.87429 87.042,28.76573 133.72851,27.86328 60.79831,-1.17524 121.19468,-22.88251 167.57032,-63.58399 46.45599,-40.772 76.3651,-98.78523 82.0625,-160.5039 6.23627,-67.55627 -16.66461,-134.53229 -57.3379,-186.79492 -40.49009,-52.02726 -97.00161,-88.69064 -157.72656,-109.67188 -43.08763,-14.88732 -88.62227,-22.05237 -134.08398,-21.42969 16.11796,-11.6501 34.26201,-20.44856 53.29687,-25.04297 40.23894,-9.71239 85.70306,-2.93404 129.70313,11.4668 15.76129,5.15853 31.25381,11.15128 46.38672,17.94336 13.24997,5.94696 31.823,8.60753 47.48437,-2.59766 15.66138,-11.20518 19.17344,-30.5674 17.19922,-45.20312 L 483.50977,116.32813 C 480.21989,91.938871 464.18079,74.990987 438.87305,71.914062 421.59096,69.8129 404.20948,68.694565 386.82812,68.542969 Z m -0.5039,60.017581 c 12.90126,0.10422 25.77971,0.89123 38.59375,2.22851 l 12.91601,95.75977 c -9.78548,-3.86018 -19.65503,-7.50467 -29.65429,-10.77735 -50.08087,-16.39103 -106.45395,-26.28358 -162.44336,-12.76953 -59.1021,14.26536 -110.23507,54.03632 -138.60938,107.8086 a 30.003,30.003 0 0 0 33.01172,43.29297 c 59.5831,-13.18017 123.1914,-9.52019 180.86914,10.4082 51.12037,17.66274 97.78393,48.4545 129.97071,89.8125 32.00358,41.12261 49.58249,94.15381 44.9414,144.42969 -4.22435,45.76153 -27.22605,90.49516 -61.89453,120.92187 -34.75721,30.5046 -82.02247,47.77843 -129.15234,48.68945 -36.53823,0.70629 -73.8858,-7.92739 -108.83399,-22.97851 C 161.02125,730.30561 128.09464,708.83269 97.203125,683.96289 78.364627,668.79661 60.419755,652.51086 43.496094,635.22852 41.55944,633.25082 40.533566,621.1137 42.800781,617.84375 l 35.72461,-51.52148 C 93.278836,593.90753 111.56213,619.58764 133,642.44336 c 45.74381,48.76921 107.47733,85.76444 176.9082,92.8418 32.05036,3.26701 66.12299,0.0759 97.63086,-14.0293 31.85713,-14.26154 59.73813,-39.53787 73.7461,-73.89258 8.07821,-19.81192 10.80706,-40.97547 9.08593,-61.52539 -1.71626,-20.49183 -7.79196,-39.98178 -16.82617,-57.58008 -18.03931,-35.13991 -46.9386,-61.46923 -77.90625,-80.67383 -72.10742,-44.71744 -158.27438,-54.07878 -238.18945,-46.66796 -26.15896,2.42581 -52.12869,6.6747 -77.734376,12.53125 L 46.392578,309.60742 c 0.795963,2.48031 2.644216,-8.5634 0.472656,-5.42773 38.050684,-54.944 90.002386,-100.5315 149.458986,-130.97266 58.32545,-29.86202 124.33455,-45.17695 190,-44.64648 z" id="path28234" /></svg:g></svg:svg>
